X:1
T:Sonate ne si mineur - K27
T:Sonate en si mineur - K27
T:Domenico Scarlatti
C:Domenico Scarlatti
%%score { ( 1 2 ) | ( 3 4 ) }
L:1/8
M:3/4
K:D
V:1 treble nm="Piano" snm="Pno."
V:2 treble 
V:3 bass 
V:4 bass 
V:1
 z!f![Q:1/4=100] (!3!f/!2!e/ !1!d b2 ^a | b2) (B2 e2 | d) !3!B/=A/ (!4!c !>!!5!B2 !4!^A) | %3
"_legato"!p! x2"^m.g." !tenuto!!2!b2 x2 | x2 !tenuto!!2!a2 x2 | x2 !tenuto!g2 x2 | %6
"_cresc." (F !4!^A B3 !4!c | (d) !4!^d e3 !4!f | g) (!2!c !5!=d3 e | %9
 f)!f! (!3!g/a/ b/a/g/f/ e/!3!d/c/B/) | x2 !tenuto!a2 x2 | x2 !tenuto!a2 x2 | x2 !tenuto!a2 x2 | %13
 x2 !tenuto!a2 x2 | x2 !tenuto!a2 x2 | x2 !tenuto!a2 x2 | x2 !tenuto!a2"_dim." x2 | %17
 x2 !tenuto!g2 x2 | x2 !tenuto!f2 x2 | x2 !tenuto!e2 x2 | %20
!<(! !4!D/ (A,/B,/C/ D/E/F/G/ A/F/E/D/!<)! | B/!3!G/F/E/ !3!F/G/A/G/ F/E/D/!2!C/) | %22
 !5!d2 !1!G/(d/c/B/ !5!c2 | !2!F/)(!5!c/!4!B/!3!A/ B2) E/(!5!B/A/G/ | %24
 A2) !1!D/((!5!A/G/F/ !5!G)!4!F/!3!E/ |!p!"_cresc." !4!F) (.!2!A,.!3!B,.!4!C.!1!D.E | %26
 F/) (!1!D/E/F/ G/!1!E/!4!A/!2!F/ !5!B/!1!G/!4!c/!1!A/ | %27
"_poco rit." !2!d/e/f/g/ !3!f/g/a/g/ f/e/d/c/ | %28
!f!"^in tempo" .!1!d/) (!5!a/g/f/)"_m.g." .!2!f/ (!4!f/e/d/) .!2!d/ (!4!d/c/B/) | %29
 .!2!A/ (!4!A/G/F/) .F/ (F/E/D/) .D/ (D/C/B,/) | x2 x2 z2 | !fermata!x6 :: %32
 z!p! (!3!A/!1!G/ !2!F d2 !4!c | d)(!1!!4![F^d] e3 !4!f |!mf! g)(!1!B/!2!A/ !1!G e2 !4!^d | %35
 !5!e)!4![^Ge] f3 !4!^g |!>(! !5!a/^g/f/=e/ d/!3!c/B/A/ !4!^G/F/^E/F/!>)! | %37
"_legato"!p! x2"^m.g." !tenuto!c2 x2 | x2 !tenuto!c2 x2 | x2 !tenuto!c2 x2 | x2 !tenuto!B2 x2 | %41
 x2 !tenuto!A2 x2 | x2 !tenuto!B2 x2 | %43
!>(!!<(! !5!A/(!1!C/F/!3!A/ c/!1!F/!2!A/c/ !5!f/!3!c/!1!A/!3!c/!>)!!<)! | %44
 !2!B/=G/B/!5!f/ !4!e/B/G/B/ !5!e/!3!c/G/c/ | !5!e/!3!c/F/c/ e/c/F/c/ !4!d/B/F/B/) | %46
!>(! !4!g/a/f/g/ e/f/d/!4!e/ c/d/B/!4!c/!>)! | x2"^m.g." !tenuto!f2 x2 |!<(! x2 !tenuto!f2 x2!<)! | %49
 x2 !tenuto!f2 x2 | x2 !tenuto!f2 x2 | x2 !tenuto!f2 x2 | x2 !tenuto!f2 x2 | x2 !tenuto!f2 x2 | %54
 x2 !tenuto!e2 x2 | x2 !tenuto!d2 x2 |!>(! x2 !tenuto!e2 x2!>)! | %57
!<(! !5!d/(!2!B/F/B/ !5!f/!3!d/!1!G/!2!d/ b/f/d/B/!<)! | %58
!>(! !5!g/!4!e/d/c/ !1!d/e/f/e/ d/!3!c/B/^A/)!>)! | b2 x2 a2 | x2 !5!g2 x2 | !4!f2 x2 e!4!d/!3!c/ | %62
!p!"_cresc." .!4!d (.!2!F.^G.^A.!1!B.c | .d/) (!1!B/c/d/ e/!2!c/!4!f/!1!d/ !3!=g/!1!e/!4!^a/!2!f/ | %64
 !5!b/!2!e/d/!2!c/ !1!d/e/f/e/ d/!4!c/B/^A/ | %65
!f! .!1!B/) (!4!f/e/d/)"_m.g." .!2!d/ (!4!d/c/B/) .!2!B/ (!4!B/=A/G/) | %66
 .!2!F/ (!4!F/E/D/) .D/ (D/C/B,/) x2 | x6 | !fermata!x6 :| %69
V:2
 x2 d2 c2 | x6 | x2 !1!G2 !2!F!1!E | %3
 B/[I:staff +1]B,/D/B,/[I:staff -1] F/[I:staff +1]B,/D/B,/[I:staff -1] B/[I:staff +1]B,/D/B,/ | %4
[I:staff -1] A/[I:staff +1]A,/C/A,/[I:staff -1] F/[I:staff +1]A,/C/A,/[I:staff -1] A/[I:staff +1]A,/C/A,/ | %5
[I:staff -1] G/[I:staff +1]G,/B,/G,/[I:staff -1] !4!E/[I:staff +1]G,/B,/G,/[I:staff -1] G/[I:staff +1]G,/B,/G,/ | %6
 x2[I:staff -1] B!2!D !1!E2 | F2 e!2!G !1!=A2 | z2 dF G2 | x6 | %10
 z/[I:staff +1] !1!A,/"_cresc."[I:staff -1]!2!C/!3!E/ !5!G/E/C/[I:staff +1]A,/[I:staff -1] F/D/[I:staff +1]A,/[I:staff -1]D/ | %11
 !3!E/C/[I:staff +1]A,/[I:staff -1]C/ G/E/C/[I:staff +1]A,/[I:staff -1] F/D/[I:staff +1]A,/[I:staff -1]D/ | %12
 E/[I:staff +1]A,/[I:staff -1]C/E/ G/E/C/[I:staff +1]A,/[I:staff -1] F/D/[I:staff +1]A,/[I:staff -1]D/ | %13
 E/C/[I:staff +1]A,/[I:staff -1]C/ G/E/C/[I:staff +1]A,/[I:staff -1] F/D/[I:staff +1]A,/[I:staff -1]D/ | %14
 E/[I:staff +1]A,/[I:staff -1]C/E/ G/E/C/[I:staff +1]A,/[I:staff -1] F/D/[I:staff +1]A,/[I:staff -1]D/ | %15
 E/C/[I:staff +1]A,/[I:staff -1]C/ G/E/C/[I:staff +1]A,/[I:staff -1] F/D/[I:staff +1]A,/[I:staff -1]D/ | %16
 E/[I:staff +1]A,/[I:staff -1]C/E/ A/E/C/[I:staff +1]A,/[I:staff -1] A/F/D/[I:staff +1]A,/ | %17
[I:staff -1] A/D/[I:staff +1]B,/[I:staff -1]D/ G/D/[I:staff +1]B,/[I:staff -1]D/ G/!2!C/[I:staff +1]A,/[I:staff -1]C/ | %18
 G/!3!D/[I:staff +1]A,/[I:staff -1]D/ F/D/[I:staff +1]A,/[I:staff -1]D/ F/D/[I:staff +1]A,/[I:staff -1]D/ | %19
 !5!F/[I:staff +1]B,/G,/B,/[I:staff -1] E/[I:staff +1]B,/G,/B,/[I:staff -1] !5!E/[I:staff +1]A,/G,/A,/ | %20
 x6 | x6 |[I:staff -1] d/!3!A/!1!G/!2!F/ x2 c/!1!G/!2!F/!1!E/ | x2 B/F/E/D/ x2 | %24
 A/E/D/C/ x2 G/E/!1!D/!2!C/ | x6 | x6 | x6 | x6 | x6 | x6 | z x5 :: x2 F2 E2 | %33
 d[I:staff +1]B,/A,/[I:staff -1] e!2!G !1!A2 | x2 G2 F2 | %35
 e[I:staff +1]C/B,/[I:staff -1] f!2!A !1!B2 | x6 | ^G/^E/C/E/ !5!B/!3!G/!1!C/G/ A/F/C/F/ | %38
 !3!^G/^E/C/E/ B/G/C/G/ A/F/C/F/ | ^G/^E/C/E/ B/G/C/G/ !5!A/F/C/[I:staff +1]A,/ | %40
[I:staff -1] A/F/D/[I:staff +1]B,/[I:staff -1] ^G/D/[I:staff +1]B,/[I:staff -1]D/ G/D/[I:staff +1]B,/[I:staff -1]D/ | %41
 ^G/C/[I:staff +1]B,/[I:staff -1]C/ F/C/[I:staff +1]B,/[I:staff -1]C/ !5!F/C/[I:staff +1]B,/[I:staff -1]C/ | %42
 !4!F/D/[I:staff +1]B,/[I:staff -1]D/ !5!^G/D/[I:staff +1]B,/[I:staff -1]D/ !5!G/C/[I:staff +1]B,/[I:staff -1]C/ | %43
 x6 | x6 | x6 | x6 | !2!^A/!1!F/!2!A/!3!c/ e/c/F/c/ d/B/F/B/ | c/^A/F/A/ e/c/F/c/ d/B/F/B/ | %49
 !3!c/F/^A/c/ e/c/F/c/ d/B/F/B/ | c/^A/F/A/ e/c/F/c/ d/B/F/B/ | c/F/^A/c/ e/c/F/c/ d/B/F/B/ | %52
 c/F/^A/c/ e/c/F/c/ d/B/F/B/ | c/F/^A/c/ e/c/F/c/ !5!d/!4!B/F/D/ | %54
 !5!d/!4!B/G/E/ !5!c/G/E/G/ !5!c/G/E/G/ | c/F/D/F/ !5!B/F/D/F/ B/F/D/F/ | %56
 B/G/E/G/ c/G/E/G/ !5!c/F/E/F/ | x6 | x6 | (!5!b/f/e/d/ e/)(b/a/g/ !5!a/)(e/d/c/ | %60
 !1!d/)a/g/f/ g/!3!d/c/B/ c/g/f/e/ | f/!2!c/B/!2!^A/ !1!B/!5!f/e/d/ e/c/!1!B/!2!A/ | x6 | x6 | x6 | %65
 x6 | x6 | x6 | z x5 :| %69
V:3
 z z z2 z2 | z[K:treble] (!2!G/F/ EG !5!C!1!^A | !5!B,2)[K:bass] (!5!E,EDC) | x6 | x6 | x6 | %6
 z2 z B,2 ^A, | B, z z E2 !1!^D | E z z =D2 !1!C | D2 x4 |!p! x6 | x6 | x6 | x6 | x6 | x6 | %16
!mf! x6 | x6 | x6 | x6 |!p! D,,2 D,2 !4!F,,2 | !5!G,,2 A,,2 A,2 |!mf! !3!B,2 !1!E2 !4!A,2 | %23
 !1!D2 !5!G,2 !2!C2 | !5!F,2 !1!B,2 !5!E,2 | %25
 z/ (!4!D,/E,/F,/ G,/!4!E,/A,/F,/ !1!D/!4!G,/!2!C/!4!A,/ | .!1!D.!2!C.!3!B,.!4!A, TG,2 | %27
 F,G, A,2 !2!A,,2 | D,,2) x4 | x6 | .A,/ (A,/G,/F,/) .F,/ (F,/E,/D,/) z2 | !fermata!x6 :: z6 | %33
 z2 !3!G, E2 !1!^D | E,2 z2 z2 | z2 A, F2 ^E | F,2 B,2 D,2 | x6 | x6 | x6 | x6 | x6 | x6 | %43
 F,,2 F,2 [A,C]2 |!pp! [B,D]2 [CE]2 [B,E]2 | [^A,E]2 F,2 B,2 |!mf! (E,2 E2 E,2) | %47
!p! F,,2 x2 !tenuto!F,,2 | !tenuto!F,,2 x2 !tenuto!F,,2 |!f! !tenuto!F,,2 x2 !tenuto!F,,2 | %50
 !tenuto!F,,2 x2 !tenuto!F,,2 |!p! !tenuto!F,,2 x2 !tenuto!F,,2 | !tenuto!F,,2 x2 !tenuto!F,,2 | %53
 !tenuto!F,,2 x2 (D,,2 | E,,2) x2 (C,,2 | D,,2) x2 (B,,,2 | C,,2) x2 ^A,,,2 |!p! B,,,2 B,,2 D,2 | %58
!mf! E,2 F,2 F,,2 |[K:treble]!mf! !4!G2 !2!c2 !5!F2 | !1!B2 !5!E2 !2!A2 | !5!D2 !1!G2 !5!C2 | %62
 z/ (!4!B,/C/D/ E/!5!C/!2!F/!4!D/ !1!^G/!5!E/!2!^A/!4!F/ | .!1!B.=A.=G.F TE2 | %64
 .D).E !tenuto!F2[K:bass] (!>!F,2 | .B,,2) x4 | x2 x2 .B,/ (B,/A,/G,/) | %67
 .F,/ (F,/E,/D,/) .D,/ (D,/C,/B,,/) z2 | !fermata!x6 :| %69
V:4
 x6 | x[K:treble] x5 | x2[K:bass] E,2 F,2 | !tenuto!!5!B,,2 x2 !tenuto!B,,2 | %4
 !tenuto!!3!A,,2 x2 !tenuto!!2!A,,2 | !tenuto!!3!G,,2 x2 !tenuto!G,,2 | F,, (!2!F,/E,/ D,2 !4!C,2 | %7
 B,,) (!1!B,/=A,/ G,2 !4!F,2 | E,) (!2!A,/G,/ F,2 E,2 | D,2) x2 G,2 | !4!A,, z z2 !tenuto!A,,2 | %11
 !tenuto!A,,2 x2 !tenuto!A,,2 | !tenuto!A,,2 x2!f! !tenuto!A,,2 | !tenuto!A,,2 x2 !tenuto!A,,2 | %14
 !tenuto!A,,2 x2!p! !tenuto!A,,2 | !tenuto!A,,2 x2 !tenuto!A,,2 | !tenuto!A,,2 x2 (A,,2 | %17
 G,,2) x2 (E,,2 | F,,2) x2 (D,,2 | E,,2) x2 C,,2 | x6 | x6 | x6 | x6 | x6 | x6 | x6 | x6 | x6 | %29
 x6 | x4 .!1!D,/.!3!F,,/.G,,/.A,,/ | !>!D,, x5 :: x6 | x2 G,2 !4!F,2 | x6 | z2 A,2 ^G,2 | x6 | %37
 C,,2 x2 !tenuto!C,,2 | !tenuto!C,,2 x2 !tenuto!C,,2 | !tenuto!C,,2 x2 (A,,2 | B,,2) x2 (^G,,2 | %41
 A,,2) x2 (F,,2 | ^G,,2) x2 !1!^E,,2 | x6 | x6 | x6 | x6 | x6 | x6 | x6 | x6 | x6 | x6 | x6 | x6 | %55
 x6 | x6 | x6 | x6 |[K:treble] x6 | x6 | x6 | x6 | x6 | x4[K:bass] x2 | x6 | x6 | %67
 x4 !1!B,,/!4!D,,/E,,/F,,/ | !tenuto!B,,, x5 :| %69

